X:15
T:John Ryan's polka
N:From Richard Robinson's Tunebook
N:Ireland
R:Polka
I:abc2nwc
M:2/4
L:1/16
K:D
A|d2d2 BcdB|A2F2 A2F2|d2d2 BcdB|A2F2 E2D2|
d2d2 BcdB|A2F2 A2de|f2d2 e2c2|d4d3:|
|:e|f2d2 d2ef|g2f2 e2de|f2d2 A2d2|f2df a3g|
f2d2 d2ef|g2f2 e2de|f2d2 e2c2|d4d3:|
